icon/pk/down-picture.svg

<svg viewBox="0 0 48 48" fill="none" xmlns="http://www.w3.org/2000/svg" height="1em" width="1em">
  <path d="M44 24C44 22.8954 43.1046 22 42 22C40.8954 22 40 22.8954 40 24H44ZM24 8C25.1046 8 26 7.10457 26 6C26 4.89543 25.1046 4 24 4V8ZM39 40H9V44H39V40ZM8 39V9H4V39H8ZM40 24V39H44V24H40ZM9 8H24V4H9V8ZM9 40C8.44772 40 8 39.5523 8 39H4C4 41.7614 6.23857 44 9 44V40ZM39 44C41.7614 44 44 41.7614 44 39H40C40 39.5523 39.5523 40 39 40V44ZM8 9C8 8.44772 8.44771 8 9 8V4C6.23858 4 4 6.23857 4 9H8Z" fill="black"/>
  <path d="M6 35L16.6931 25.198C17.4389 24.5143 18.5779 24.4953 19.3461 25.1538L32 36" stroke="black" stroke-width="4" stroke-linecap="round" stroke-linejoin="round"/>
  <path d="M28 31L32.7735 26.2265C33.4772 25.5228 34.5914 25.4436 35.3877 26.0408L42 31" stroke="black" stroke-width="4" stroke-linecap="round" stroke-linejoin="round"/>
  <path d="M32 13L37 18L42 13" stroke="black" stroke-width="4" stroke-linecap="round" stroke-linejoin="round"/>
  <path d="M37 6L37 18" stroke="black" stroke-width="4" stroke-linecap="round" stroke-linejoin="round"/>
</svg>

<svg width="48" height="48" fill="none" xmlns="http://www.w3.org/2000/svg"><path d="M44 24a2 2 0 1 0-4 0h4ZM24 8a2 2 0 1 0 0-4v4Zm15 32H9v4h30v-4ZM8 39V9H4v30h4Zm32-15v15h4V24h-4ZM9 8h15V4H9v4Zm0 32a1 1 0 0 1-1-1H4a5 5 0 0 0 5 5v-4Zm30 4a5 5 0 0 0 5-5h-4a1 1 0 0 1-1 1v4ZM8 9a1 1 0 0 1 1-1V4a5 5 0 0 0-5 5h4Z" fill="#000"/><path d="m6 35 10.693-9.802a2 2 0 0 1 2.653-.044L32 36M28 31l4.773-4.773a2 2 0 0 1 2.615-.186L42 31M32 13l5 5 5-5M37 6v12" stroke="#000" stroke-width="4" stroke-linecap="round" stroke-linejoin="round"/></svg>
